X: 23322
T: Legacy, The
R: jig
M: 6/8
K: Fmajor
~F3 ~A3|~f3 fga|~F3 ~A3|cAF GAG|
~F3 ~A3|~f3 fga|gfd dfd|1 cAF GAG:|2 cAG GAc||
~d3 dcA|~c3 cAc|~d3 dcA|cAG GAc|
~d3 dcA|~c3 cde|~f3 ~d3|1 cAF GAc:|2 cAF GAG||

